X:1
T:Title
%%score { ( 1 4 ) | ( 2 3 ) }
L:1/8
Q:1/4=100
M:4/4
K:G
V:1 treble nm="Grand Piano"
V:4 treble 
V:2 treble 
V:3 treble 
V:1
 B2 B2 B>A G2 | d2 d2 d>c B2 | [FA]2 [FA]2 [FA]>[=F^G] [^FA]>[=GB] | [Ac]2 [GB]2 [FA]4 | %4
w: Powell~G.~Fithian * * * *||||
 B2 B2 B>A G2 | d2 d2 d>c B2 | A2 A2 [CEA]>[CEc] [DEB]>[CEA] | [B,DG]2 .[A,DF]2 [B,DG]4 | %8
w: ||||
 z4 [DG]4 | [Fc]4 [FA]4 | B2 B>c d2 B2 | z2 A2 z4 | z4 [DG]4 | [Fc]4 [FA]4 | %14
w: ||||||
 B2 [=Fd]2 [Ed]>[Ec] [EB]>[EA] | z2 F2 z4 |] %16
w: ||
V:2
 [G,D]2 [G,D]2 [G,D]>[G,CD] [G,B,D]2 | [G,B,G]2 [G,B,G]2 [G,B,G]>[G,EG] [G,DG]2 | %2
 [D,D]2 [D,D]2 [D,D]>[D,D] [D,D]>[D,D] | [F,D]2 [G,D]2 [D,D]4 | %4
 [G,D]2 [G,D]2 [G,D]>[G,CD] [G,B,D]2 | [G,B,G]2 [G,B,G]2 [G,B,G]>[G,EG] [G,DG]2 | %6
 [CE]2 [CE]2[K:bass] C,>A,, B,,>C, | D,2 z C G,4 | G,2 G,>G, G,2 G,2 | [D,A,]2 D,>D, D,2 D,2 | %10
 [G,DG]2 [G,DG]>[G,A,G] [G,B,G]2 [G,DG]2 | [A,DF]2 (3[^CE]DE[K:bass] D,4 | G,2 G,>G, G,2 G,2 | %13
 [D,A,]2 D,>D, D,2 D,2 | [G,D]2 [B,,G,]2 [C,G,]>[C,A,] [C,B,]>[C,C] | %15
 [D,B,D]2 .[D,A,D]2 [G,B,D]4 |] %16
V:3
 x8 | x8 | x8 | x8 | x8 | x8 | x4[K:bass] x4 | z2 D,2 z4 | x8 | x8 | x8 | z2 A,2[K:bass] z4 | x8 | %13
 x8 | x8 | x8 |] %16
V:4
 x8 | x8 | x8 | x8 | x8 | x8 | x8 | x8 | [DB]4 B,2 B,2 | z2 A,>A, D2 D2 | x8 | A2 (3z FG [DFA]4 | %12
 [DB]4 B,2 B,2 | z2 A,>A, D2 D2 | x8 | G2 z C G4 |] %16

